assets/images/font-names/lora.svg

<svg width="30.48" height="10.74"><path d="M0 10.5v-.495q.497-.014.725-.217a.571.571 0 00.025-.023q.225-.225.255-.532.028-.284.03-.955a36.327 36.327 0 000-.118V1.68a14.948 14.948 0 01.006-.447Q1.052.881 1.08.6L0 .66V0h3.375v.495q-.497.014-.725.217a.571.571 0 00-.025.023Q2.4.96 2.37 1.268q-.028.283-.03.954a36.327 36.327 0 000 .118v6.435a22.259 22.259 0 01-.003.366q-.008.512-.042.804L5.1 9.9q.96-.015 1.44-.607.449-.555.478-1.734a6.732 6.732 0 00.002-.164h.51L7.44 10.5H0zm28.2-4.185v-.93q0-.975-.285-1.522a.916.916 0 00-.495-.432q-.173-.069-.394-.097a2.596 2.596 0 00-.326-.019q-.465 0-.885.195a1.324 1.324 0 00-.401.281 1.224 1.224 0 00-.214.304.704.704 0 01.167.319q.028.115.028.251 0 .225-.165.428a.534.534 0 01-.319.187.813.813 0 01-.161.015.788.788 0 01-.213-.027.578.578 0 01-.282-.176.694.694 0 01-.159-.32 1.001 1.001 0 01-.021-.212 1.248 1.248 0 01.243-.737 1.696 1.696 0 01.14-.17q.353-.382.963-.616A3.852 3.852 0 0125.522 3a4.198 4.198 0 01.915-.206 5.309 5.309 0 01.608-.034 3.775 3.775 0 01.69.059q.386.072.685.231a1.76 1.76 0 01.485.377 1.976 1.976 0 01.379.651q.206.564.206 1.387a6.697 6.697 0 010 .07l-.015 3.375a8.633 8.633 0 01-.023.623 10.396 10.396 0 01-.037.397l1.065-.06v.63h-2.145a2.825 2.825 0 01-.022-.128q-.037-.245-.083-.727a4.338 4.338 0 01-.804.643 2.936 2.936 0 01-1.551.452 3.884 3.884 0 01-.634-.048q-.641-.107-1.038-.447a1.6 1.6 0 01-.574-1.168 2.096 2.096 0 01-.004-.122 1.843 1.843 0 01.593-1.375 2.457 2.457 0 01.104-.095 4.038 4.038 0 01.984-.617 5.357 5.357 0 01.771-.276 7.541 7.541 0 012.019-.278 7.378 7.378 0 01.104.001zM17.28 10.5v-.45a1.368 1.368 0 00.224-.017q.264-.044.399-.2a.914.914 0 00.184-.347 1.234 1.234 0 00.041-.208q.037-.338.037-1.058V4.8a11.104 11.104 0 01.004-.297q.011-.419.056-.678l-1.065.045v-.615h.465q.57 0 .825-.097a1.403 1.403 0 00.351-.199 1.716 1.716 0 00.129-.109h.435q.04.393.06.928a27.003 27.003 0 01.015.557 3.332 3.332 0 01.595-.716 4.322 4.322 0 01.478-.379 2.834 2.834 0 01.688-.352 2.33 2.33 0 01.759-.128 1.39 1.39 0 01.353.043A1.055 1.055 0 0122.71 3a.774.774 0 01.276.461 1.185 1.185 0 01.024.244.669.669 0 01-.063.278q-.04.088-.105.177a1.218 1.218 0 01-.02.025q-.187.24-.532.24a.715.715 0 01-.292-.058.69.69 0 01-.248-.19.71.71 0 01-.173-.473q0-.058.008-.119a1.398 1.398 0 00-.037 0q-.518 0-1.042.383a2.856 2.856 0 00-.069.052 3.461 3.461 0 00-.676.71 4.431 4.431 0 00-.306.49l.015 3.69a12.56 12.56 0 01-.004.317q-.011.444-.056.703l.945-.045v.615H17.28zm-5.055.24q-1.035 0-1.897-.487-.863-.488-1.365-1.358a3.775 3.775 0 01-.493-1.661 4.577 4.577 0 01-.01-.304q0-1.17.495-2.122.495-.953 1.358-1.5.862-.548 1.912-.548 1.035 0 1.905.503.87.502 1.373 1.372a3.783 3.783 0 01.501 1.864 4.474 4.474 0 01.001.071q0 1.14-.502 2.1a3.998 3.998 0 01-.993 1.243 3.846 3.846 0 01-.373.272q-.862.555-1.912.555zm.12-.6a2.088 2.088 0 00.685-.106q.588-.203.928-.794.517-.9.517-2.235a6.823 6.823 0 00-.104-1.222q-.131-.722-.429-1.315a4.256 4.256 0 00-.029-.058 2.307 2.307 0 00-.419-.581q-.504-.499-1.269-.499-1.065 0-1.626.842a2.373 2.373 0 00-.046.073q-.548.89-.563 2.177a6.258 6.258 0 000 .073 6.206 6.206 0 00.124 1.26 5.425 5.425 0 00.139.532 3.624 3.624 0 00.305.71 2.774 2.774 0 00.49.633q.532.51 1.297.51zm15.84-1.905l.015-1.41a6.155 6.155 0 00-1.231.164 4.93 4.93 0 00-.959.338 2.045 2.045 0 00-.485.315 1.392 1.392 0 00-.475 1.088 1.492 1.492 0 00.038.348.973.973 0 00.292.507 1.14 1.14 0 00.625.286 1.553 1.553 0 00.215.014 2.587 2.587 0 00.64-.077 2.225 2.225 0 00.395-.14q.431-.202.875-.604A5.282 5.282 0 0028.2 9a4.554 4.554 0 01-.007-.132q-.008-.228-.008-.633z" vector-effect="non-scaling-stroke" stroke-linecap="round" fill-rule="evenodd" font-size="12" stroke="#000" stroke-width=".25mm" fill="none"/></svg>

<svg width="30.48" height="10.74" viewBox="0 0 30.48 10.74"><title>Lora</title><g id="svgGroup" stroke-linecap="round" fill-rule="evenodd" font-size="9pt" stroke="#000" stroke-width="0.25mm" fill="none" style="stroke:#000;stroke-width:0.25mm;fill:none"><path d="M 0 10.5 L 0 10.005 Q 0.497 9.991 0.725 9.788 A 0.571 0.571 0 0 0 0.75 9.765 Q 0.975 9.54 1.005 9.233 Q 1.033 8.949 1.035 8.278 A 36.327 36.327 0 0 0 1.035 8.16 L 1.035 1.68 A 14.948 14.948 0 0 1 1.041 1.233 Q 1.052 0.881 1.08 0.6 L 0 0.66 L 0 0 L 3.375 0 L 3.375 0.495 Q 2.878 0.509 2.65 0.712 A 0.571 0.571 0 0 0 2.625 0.735 Q 2.4 0.96 2.37 1.268 Q 2.342 1.551 2.34 2.222 A 36.327 36.327 0 0 0 2.34 2.34 L 2.34 8.775 A 22.259 22.259 0 0 1 2.337 9.141 Q 2.329 9.653 2.295 9.945 L 5.1 9.9 Q 6.06 9.885 6.54 9.293 Q 6.989 8.738 7.018 7.559 A 6.732 6.732 0 0 0 7.02 7.395 L 7.53 7.395 L 7.44 10.5 L 0 10.5 Z M 28.2 6.315 L 28.2 5.385 Q 28.2 4.41 27.915 3.863 A 0.916 0.916 0 0 0 27.42 3.431 Q 27.247 3.362 27.026 3.334 A 2.596 2.596 0 0 0 26.7 3.315 Q 26.235 3.315 25.815 3.51 A 1.324 1.324 0 0 0 25.414 3.791 A 1.224 1.224 0 0 0 25.2 4.095 A 0.704 0.704 0 0 1 25.367 4.414 Q 25.395 4.529 25.395 4.665 Q 25.395 4.89 25.23 5.093 A 0.534 0.534 0 0 1 24.911 5.28 A 0.813 0.813 0 0 1 24.75 5.295 A 0.788 0.788 0 0 1 24.537 5.268 A 0.578 0.578 0 0 1 24.255 5.092 A 0.694 0.694 0 0 1 24.096 4.772 A 1.001 1.001 0 0 1 24.075 4.56 A 1.248 1.248 0 0 1 24.318 3.823 A 1.696 1.696 0 0 1 24.458 3.653 Q 24.811 3.271 25.421 3.037 A 3.852 3.852 0 0 1 25.522 3 A 4.198 4.198 0 0 1 26.437 2.794 A 5.309 5.309 0 0 1 27.045 2.76 A 3.775 3.775 0 0 1 27.735 2.819 Q 28.121 2.891 28.42 3.05 A 1.76 1.76 0 0 1 28.905 3.427 A 1.976 1.976 0 0 1 29.284 4.078 Q 29.49 4.642 29.49 5.465 A 6.697 6.697 0 0 1 29.49 5.535 L 29.475 8.91 A 8.633 8.633 0 0 1 29.452 9.533 A 10.396 10.396 0 0 1 29.415 9.93 L 30.48 9.87 L 30.48 10.5 L 28.335 10.5 A 2.825 2.825 0 0 1 28.313 10.372 Q 28.276 10.127 28.23 9.645 A 4.338 4.338 0 0 1 27.426 10.288 A 2.936 2.936 0 0 1 25.875 10.74 A 3.884 3.884 0 0 1 25.241 10.692 Q 24.6 10.585 24.203 10.245 A 1.6 1.6 0 0 1 23.629 9.077 A 2.096 2.096 0 0 1 23.625 8.955 A 1.843 1.843 0 0 1 24.218 7.58 A 2.457 2.457 0 0 1 24.322 7.485 A 4.038 4.038 0 0 1 25.306 6.868 A 5.357 5.357 0 0 1 26.077 6.592 A 7.541 7.541 0 0 1 28.096 6.314 A 7.378 7.378 0 0 1 28.2 6.315 Z M 17.28 10.5 L 17.28 10.05 A 1.368 1.368 0 0 0 17.504 10.033 Q 17.768 9.989 17.903 9.833 A 0.914 0.914 0 0 0 18.087 9.486 A 1.234 1.234 0 0 0 18.128 9.278 Q 18.165 8.94 18.165 8.22 L 18.165 4.8 A 11.104 11.104 0 0 1 18.169 4.503 Q 18.18 4.084 18.225 3.825 L 17.16 3.87 L 17.16 3.255 L 17.625 3.255 Q 18.195 3.255 18.45 3.158 A 1.403 1.403 0 0 0 18.801 2.959 A 1.716 1.716 0 0 0 18.93 2.85 L 19.365 2.85 Q 19.405 3.243 19.425 3.778 A 27.003 27.003 0 0 1 19.44 4.335 A 3.332 3.332 0 0 1 20.035 3.619 A 4.322 4.322 0 0 1 20.513 3.24 A 2.834 2.834 0 0 1 21.201 2.888 A 2.33 2.33 0 0 1 21.96 2.76 A 1.39 1.39 0 0 1 22.313 2.803 A 1.055 1.055 0 0 1 22.71 3 A 0.774 0.774 0 0 1 22.986 3.461 A 1.185 1.185 0 0 1 23.01 3.705 A 0.669 0.669 0 0 1 22.947 3.983 Q 22.907 4.071 22.842 4.16 A 1.218 1.218 0 0 1 22.822 4.185 Q 22.635 4.425 22.29 4.425 A 0.715 0.715 0 0 1 21.998 4.367 A 0.69 0.69 0 0 1 21.75 4.177 A 0.71 0.71 0 0 1 21.577 3.704 Q 21.577 3.646 21.585 3.585 A 1.398 1.398 0 0 0 21.548 3.585 Q 21.03 3.585 20.506 3.968 A 2.856 2.856 0 0 0 20.437 4.02 A 3.461 3.461 0 0 0 19.761 4.73 A 4.431 4.431 0 0 0 19.455 5.22 L 19.47 8.91 A 12.56 12.56 0 0 1 19.466 9.227 Q 19.455 9.671 19.41 9.93 L 20.355 9.885 L 20.355 10.5 L 17.28 10.5 Z M 12.225 10.74 Q 11.19 10.74 10.328 10.253 Q 9.465 9.765 8.963 8.895 A 3.775 3.775 0 0 1 8.47 7.234 A 4.577 4.577 0 0 1 8.46 6.93 Q 8.46 5.76 8.955 4.808 Q 9.45 3.855 10.313 3.308 Q 11.175 2.76 12.225 2.76 Q 13.26 2.76 14.13 3.263 Q 15 3.765 15.503 4.635 A 3.783 3.783 0 0 1 16.004 6.499 A 4.474 4.474 0 0 1 16.005 6.57 Q 16.005 7.71 15.503 8.67 A 3.998 3.998 0 0 1 14.51 9.913 A 3.846 3.846 0 0 1 14.137 10.185 Q 13.275 10.74 12.225 10.74 Z M 12.345 10.14 A 2.088 2.088 0 0 0 13.03 10.034 Q 13.618 9.831 13.958 9.24 Q 14.475 8.34 14.475 7.005 A 6.823 6.823 0 0 0 14.371 5.783 Q 14.24 5.061 13.942 4.468 A 4.256 4.256 0 0 0 13.913 4.41 A 2.307 2.307 0 0 0 13.494 3.829 Q 12.99 3.33 12.225 3.33 Q 11.16 3.33 10.599 4.172 A 2.373 2.373 0 0 0 10.553 4.245 Q 10.005 5.135 9.99 6.422 A 6.258 6.258 0 0 0 9.99 6.495 A 6.206 6.206 0 0 0 10.114 7.755 A 5.425 5.425 0 0 0 10.253 8.287 A 3.624 3.624 0 0 0 10.558 8.997 A 2.774 2.774 0 0 0 11.048 9.63 Q 11.58 10.14 12.345 10.14 Z M 28.185 8.235 L 28.2 6.825 A 6.155 6.155 0 0 0 26.969 6.989 A 4.93 4.93 0 0 0 26.01 7.327 A 2.045 2.045 0 0 0 25.525 7.642 A 1.392 1.392 0 0 0 25.05 8.73 A 1.492 1.492 0 0 0 25.088 9.078 A 0.973 0.973 0 0 0 25.38 9.585 A 1.14 1.14 0 0 0 26.005 9.871 A 1.553 1.553 0 0 0 26.22 9.885 A 2.587 2.587 0 0 0 26.86 9.808 A 2.225 2.225 0 0 0 27.255 9.668 Q 27.686 9.466 28.13 9.064 A 5.282 5.282 0 0 0 28.2 9 A 4.554 4.554 0 0 1 28.193 8.868 Q 28.185 8.64 28.185 8.235 Z" vector-effect="non-scaling-stroke"/></g></svg>
